X:362
T: WAS IST DOCH AUF DIESER WELT
N: F0639
O: Europa, Mitteleuropa, Deutschland
R: Staende -, Jaeger - Lied
M: 4/4
L: 1/8
K: A
 | E2FDE2FD | E2FGA2z2 |
c3AA3E | E3DC2z2 |
E2F2G2A2 | B2c2BGE2 |
G2A2B2c2 | d2c2c2B2 |
E2E2d3c | B3AG2E2 |
E3dc3e | edBGA2z2 |
E2E2d3c | B3AG2E2 |
E3dc3e | edBGA2z2

@@@ Tune index: 5793
